X:1
T:Title
%%score { ( 1 3 ) | ( 2 4 ) }
L:1/8
M:3/4
K:Eb
V:1 treble nm="Grand Piano"
V:3 treble 
V:2 bass 
V:4 bass 
V:1
 z2 z2[Q:1/4=100] [GB]>[GB] | [GB]2 [EG]2 [GB]>[GB] | [EAc]2 [CEA]2 c>c | e2 d2 c2 | [GB]4 B>B | %5
 c2 e2 d>c | B2 G2 E>F | G2 [B,GB]2 [B,EG]2 | [B,DF]4 [DAB]>[DAB] | [EGB]2 [B,EG]2 [GB]>[GB] | %10
 c2 A2 c>c | c2 [Ad]2 [Ge]2 | d4 c>B | [Ge]2 [Be]2 [Ae]2 | [Ge]2 B2 G>G | [DB]2 [DA]2 [DF]2 | %16
[M:2/4] E4 |[M:1/4] e>[EBd] |[M:3/4] [EAc]2 [EAc]2 [EAe]2 | [GB]4 [Ad]>[Ac] | [GB]2 [FA]2 [EG]2 | %21
 [DF]4 G>F | z2 z2 B2 | [Ge]2 [Ge]2 [EGc]2 | [DFB]2 [CF=A]2 [EFc]2 | [DFB]4 [DAB]>[DAB] | %26
 [Ge]2 [GB]2 [GB]>[GB] | [Ac]2 [GB]2 [GB]>[GB] | [Ad]2 [Ad]2 .[CAc]2 | [Ac]2 [GB]2 G>F | %30
 E2 G2 [FA]2 |[M:7/8] [GB]2 [Ge]3 e>e |[M:3/4] d2 c2 d2 |[M:2/4] [Ge]4 |] %34
V:2
 z2 z2 [E,E]>[E,E] | [E,E]2 [E,B,]2 [E,E]>[E,E] | A,,2 A,,2[K:treble] [A,EA]>[A,EA] | %3
 [A,CA]2 [A,DA]2 [A,EA]2 | [E,E]4 [E,G,E]>[E,G,E] | [A,E]2 [A,CE]2 [A,B,E]>[A,E] | %6
 [E,G,E]2 [E,B,E]2 [G,B,]>[F,B,D] | [E,B,E]2 E,2 E,2 | B,,4 B,,>B,, | E,2 E,2 [E,E]>[E,E] | %10
 [A,EA]2 [A,CE]2 [A,EA]>[A,EA] | [A,EA]2[K:bass] [F,B,]2 [E,B,]2 | [B,F]4 [B,DA]>[B,DA] | %13
 [E,B,]2 [E,D]2 [E,C]2 | [E,B,]2 [E,G,E]2 [E,E]>[E,E] | [B,,F,]2 [B,,F,]2 [B,,A,]2 | %16
[M:2/4] [E,G,]4 |[M:1/4][K:treble] [G,B,G]>G, |[M:3/4][K:bass] A,2 A,,2 C,2 | [E,E]4 [E,E]>[E,E] | %20
 [E,E]2 [D,B,]2 [E,B,]2 | [B,,B,]4 [B,D]>[A,B,D] | [G,B,]2 [G,B,E]2 .[F,B,D]2 | %23
 [E,B,]2 [E,B,]2 E,2 | F,2 F,2 F,2 | B,,4 B,>B, | [E,B,]2 [E,E]2 [E,E]>[E,E] | %27
 [E,E]2 [E,E]2 [E,B,]>[E,B,] | [B,,B,]2 [B,,B,]2 z D | [E,E]2 [E,E]2 [E,B,E]>[F,B,D] | %30
 [G,B,]2 [E,B,E]2 [E,B,]2 |[M:7/8] [E,E]2 [E,B,]3[K:treble] [CEG]>[CEG] | %32
[M:3/4] [B,FA]2 [B,FA]2 [B,A]2 |[M:2/4][K:bass] [E,B,]4 |] %34
V:3
 x6 | x6 | x6 | x6 | x6 | x6 | x6 | x6 | x6 | x6 | x6 | x6 | x6 | x6 | x6 | x6 |[M:2/4] x4 | %17
[M:1/4] x2 |[M:3/4] x6 | x6 | x6 | x6 | E2 G2 z A | x6 | x6 | x6 | x6 | x6 | x6 | x6 | x6 | %31
[M:7/8] x7 |[M:3/4] x6 |[M:2/4] x4 |] %34
V:4
 x6 | x6 | x4[K:treble] x2 | x6 | x6 | x6 | x6 | x6 | x6 | x6 | x6 | x2[K:bass] x4 | x6 | x6 | x6 | %15
 x6 |[M:2/4] x4 |[M:1/4][K:treble] x2 |[M:3/4][K:bass] x6 | x6 | x6 | x6 | x6 | x6 | x6 | x6 | x6 | %27
 x6 | z2 z2 B,,2 | x6 | x6 |[M:7/8] x5[K:treble] x2 |[M:3/4] x6 |[M:2/4][K:bass] x4 |] %34

